X: 2
T:BALEU 2
M:4/4
L:1/8
Q:1/4=120
Z:YVES BELOTTEAU
Z:Yves Belotteau
K:G
|BB/2B/2cB ABG3/2 z/2 |AA/2A/2AB GFE3/2 z/2 |BB/2B/2cB ABG3/2 z/2 |AA/2A
/2AB GFE3/2 z/2 |
EFGF/2E/2 GAB3/2 z/2 |BB/2B/2BG BGA3/2 z/2 |GG/2G/2GE GAB3/2 z/2 |cBAB G
3/2 z/2 E3/2|
W:
W: From "Falaleiro" http://home.t-online.de/home/pheld/homepage.htm
